X: 2
T: Mike Hobin's
R: mazurka
M: 3/4
L: 1/8
K: Ador
e2 A A2 g f2 d | e2 A A3 B2 d | e2 A A2 g f2 d | B2 G G3 B2 d |e2 A A2 g f2 d | e2 A A3 g2 a | b2 a g2 e d2 B | B2 A A3 Bcd ||e2 a a2 g b2 g | e2 A A3 B2 d |e2 a a2 g f2 d | B2 G G3 B2 d |e2 a a2 g b2 g |e2 a a3 g2 a | b2 a g2 e d2 B | B2 A A3 ||


Tune 5883	Setting 17795

